X: 021
T: Calder's Geo
C: Tom Anderson (1982)
R: slow air
B: The Tom Anderson Collection 2004 p.2 #1
Z: 2019 John Chambers <jc:trillian.mit.edu>
M: C
L: 1/8
K: A
uE2 |\
("A"A3 E) ("C#/A7"C2 A,2) | "D"(D2 F2) "C#/A"E4 |\
("A"A3 MA) ("F#m"c2 A2) | "Bm7"(c2 B2) ("E7"B3 E) |\
("A"A3 E) ("C#/A7"C2 A,2) | "D"(D2 F2) "C#/A"E4 |
("Bm"D3 B,) ("E7"E3 D) | "A"C2 "D"A,2 "A"A,2 :|\
uE2 |\
("A"A3 c) ("C#/A7"e2 =G2) | ("D"F2 d2) (f3 Mf) |\
("E/A"e2 c2) ("F#m"a2 g2) | ("B7"f2 B2) ("Bm7 E7"e3 Me) |
("A"a3 c) ("D"d2 f2) | ("E7"e2 "C#7"G2) ("F#m C#dim"A3 C) |\
("Bm"D3 F) ("E7"E2 D2) | "A"C2 "D"A2 "A"A2 e2 |\
("A"a3 c) ("D"d2 f2) | ("E7"e2 "C#7"G2) ("F#m A7"A3 C) |
("Bm7"D2 F2) ("A"E2 e2) | ("Bm"dc) "B7"BA ("Bm"B2 "E7"E2) |\
("A"A3 E) ("C#/A7"C2 A,2) | ("D"D2 F2) ("C#/A7"E3 C) |\
("Bm"D2 F2) ("E7"E3 D) | "A"C2 [A2E2] [A2E2] |]
%%begintext align
%% An impressively deep geo by the roadside near Eshaness lighthouse.
%%endtext
